icons/2_Variations/IFTTT bg.var.svg

<svg width="1024" height="1024" viewBox="0 0 1024 1024" fill="none" xmlns="http://www.w3.org/2000/svg">
<g clip-path="url(#clip0_3_122)">
<path d="M512 1024C794.77 1024 1024 794.77 1024 512C1024 229.23 794.77 0 512 0C229.23 0 0 229.23 0 512C0 794.77 229.23 1024 512 1024Z" fill="#9ABEFF"/>
<path d="M224 432.901H273V587.201H224V432.901ZM504.5 432.901H420.3V482.001H455.4V587.201H504.5V481.901H539.6V432.801H504.5V432.901ZM637.7 432.901H553.5V482.001H588.6V587.201H637.7V481.901H672.8V432.801H637.7V432.901ZM771 432.901H686.8V482.001H721.9V587.201H771V481.901H806V432.801H771V432.901ZM406.3 481.901V432.801H294.1V587.101H343.2V545.001H385.3V496.001H343.2V482.001H406.3V481.901Z" fill="white"/>
</g>
<defs>
<clipPath id="clip0_3_122">
<rect width="1024" height="1024" fill="white"/>
</clipPath>
</defs>
</svg>

<svg xmlns="http://www.w3.org/2000/svg" width="1024" height="1024" fill="none">
   <g clip-path="url(#a)">
      <path fill="#9ABEFF" d="M512 1024c282.77 0 512-229.23 512-512S794.77 0 512 0 0 229.23 0 512s229.23 512 512 512Z"/>
      <path fill="#fff" d="M224 432.901h49v154.3h-49v-154.3Zm280.5 0h-84.2v49.1h35.1v105.2h49.1v-105.3h35.1v-49.1h-35.1v.1Zm133.2 0h-84.2v49.1h35.1v105.2h49.1v-105.3h35.1v-49.1h-35.1v.1Zm133.3 0h-84.2v49.1h35.1v105.2H771v-105.3h35v-49.1h-35v.1Zm-364.7 49v-49.1H294.1v154.3h49.1v-42.1h42.1v-49h-42.1v-14h63.1v-.1Z"/>
   </g>
   <defs>
      <clipPath id="a">
         <path fill="#fff" d="M0 0h1024v1024H0z"/>
      </clipPath>
   </defs>
</svg>
